static/assets/img/icons/theme/navigation/angle-double-up.svg

<svg height="24" viewBox="0 0 24 24" width="24" xmlns="http://www.w3.org/2000/svg"><g fill="none" fill-rule="evenodd"><path d="m0 0h24v24h-24z" opacity="0"/><g fill="#000" fill-rule="nonzero"><path d="m8.2928955 10.2071068c-.39052429-.39052431-.39052429-1.02368929 0-1.41421358.3905243-.39052429 1.02368928-.39052429 1.41421357 0l6.00000003 5.99999998c.3785789.378579.3918245.9881654.0300473 1.3828314l-5.5 6c-.37319238.407119-1.00575975.4346219-1.41287874.0614295s-.43462192-1.0057597-.06142951-1.4128787l4.85301635-5.2941997z" transform="matrix(0 -1 -1 0 27.500006 27.500006)"/><path d="m6.70710678 12.2071104c-.39052429.3905243-1.02368927.3905243-1.41421356 0s-.39052429-1.0236893 0-1.4142136l5.99999998-5.99999998c.378579-.37857893.9881654-.39182456 1.3828314-.03004736l6 5.50000004c.407119.3731924.4346219 1.0057597.0614295 1.4128787s-1.0057597.434622-1.4128787.0614295l-5.2941997-4.85301628z" opacity=".3" transform="matrix(-1 0 0 1 24.000006 0)"/></g></g></svg>

<svg width="24px" height="24px" viewBox="0 0 24 24" version="1.1" xmlns="http://www.w3.org/2000/svg" xmlns:xlink="http://www.w3.org/1999/xlink">
    <title>Icon For Angle-double-up</title>
    <g stroke="none" stroke-width="1" fill="none" fill-rule="evenodd">
        <polygon points="0 0 24 0 24 24 0 24" opacity="0"></polygon>
        <path d="M8.2928955,10.2071068 C7.90237121,9.81658249 7.90237121,9.18341751 8.2928955,8.79289322 C8.6834198,8.40236893 9.31658478,8.40236893 9.70710907,8.79289322 L15.7071091,14.7928932 C16.085688,15.1714722 16.0989336,15.7810586 15.7371564,16.1757246 L10.2371564,22.1757246 C9.86396402,22.5828436 9.23139665,22.6103465 8.82427766,22.2371541 C8.41715867,21.8639617 8.38965574,21.2313944 8.76284815,20.8242754 L13.6158645,15.5300757 L8.2928955,10.2071068 Z" fill="#000000" fill-rule="nonzero" transform="translate(12.000003, 15.500003) scale(-1, 1) rotate(-90.000000) translate(-12.000003, -15.500003) "></path>
        <path d="M6.70710678,12.2071104 C6.31658249,12.5976347 5.68341751,12.5976347 5.29289322,12.2071104 C4.90236893,11.8165861 4.90236893,11.1834211 5.29289322,10.7928968 L11.2928932,4.79289682 C11.6714722,4.41431789 12.2810586,4.40107226 12.6757246,4.76284946 L18.6757246,10.2628495 C19.0828436,10.6360419 19.1103465,11.2686092 18.7371541,11.6757282 C18.3639617,12.0828472 17.7313944,12.1103502 17.3242754,11.7371577 L12.0300757,6.88414142 L6.70710678,12.2071104 Z" fill="#000000" fill-rule="nonzero" opacity="0.3" transform="translate(12.000003, 8.500003) scale(-1, 1) rotate(-360.000000) translate(-12.000003, -8.500003) "></path>
    </g>
</svg>
